!!!!SEGMENT: pl-sa--58-a-i-58--001-004_lechleitner-ferdinand-simon--vesperae-in-f-beatus-vir.krn
!!!cenid: 17xx:414
!!!COM: Lechleitner, Ferdinand Simon
!!!COM-rismID: pe30001903
!!!CDT: ~1700-~1800
!!!CNT:
!!!OPR: Vesperae in F
!!!OTL: Beatus vir
!!!OMV: 004
!!!PDT: 1726
!!!AGN: Sacred; Vespers
!!!YEC: Copyright 2022 Narodowy Instytut Fryderyka Chopina (https://polishscores.org)
!!!YEM: License CC-BY-4.0 (https://creativecommons.org/licenses/by/4.0)
!!!SMS-siglum: PL-SA
!!!SMS-shelfmark: 58/A I 58
!!!SMS-shelfwork: 001-004 M
!!!NIFC-rismSourceID: 1001068282
!!!NIFC-rismChildID: 1001068282
!!!NIFC-islandoraID: none
!!!URL-pdf-islandora:
!!!URL-scan: https://bc.bdsandomierz.pl/dlibra/publication/1347/edition/1315/content @EN{Scan in the Sandomierz Diocese Digital Library} @PL{Skany w portalu Cyfrowa Biblioteka Diecezjalna w Sandomierzu}
!!!IIIF:
!!!ONB-nifc: UWAGA: części Vespere: Domine ad adiuvandum, Dixit dominus, Confitebor, Beatus vir, Laudate pueri, Laudate Dominum, Magnificat
!!!AIN: 1 alto 1 empty 2 liuto 1 organ 1 tenor 2 violn 1 vox
!!!key:
**kern	**fba	**kern	**kern	**kern	**text	**kern	**text	**kern	**text	**kern	**text	**kern	**kern
*	*	*group3	*group3	*group2	*	*group2	*	*group2	*	*group2	*	*group1	*group1
*part9	*	*part8	*part7	*part6	*	*part5	*	*part4	*	*part3	*	*part2	*part1
*staff9	*	*staff8	*staff7	*staff6	*	*staff5	*	*staff4	*	*staff3	*	*staff2	*staff1
*Iorgan	*	*Ivioln	*Ivioln	*Iempty	*	*Itenor	*	*Ialto	*	*Ivox	*	*Iliuto	*Iliuto
*I"Organo	*	*I"Violino 2do.	*I"Violino 1mo.	*I"Baſsus.	*	*I"Tenor	*	*I"Altus.	*	*I"Cantus	*	*I"Lituo 2.do	*I"Lituo 1mo
*I'org.	*	*I'vl II	*I'vl I	*I'B	*	*I'T	*	*I'A	*	*I'C	*	*I'lituus II	*I'lituus I
*clefF4	*	*clefG2	*clefG2	*clefF4	*	*clefC4	*	*clefC3	*	*clefC1	*	*clefG2	*clefG2
*	*	*	*	*	*	*	*	*	*	*	*	*ITrd1c2	*ITrd1c2
*k[b-e-]	*	*k[b-e-]	*k[b-e-]	*k[b-e-]	*	*k[b-e-]	*	*k[b-e-]	*	*k[b-e-]	*	*k[b-e-]	*k[b-e-]
*B-:	*	*B-:	*B-:	*B-:	*	*B-:	*	*B-:	*	*B-:	*	*B-:	*B-:
*M3/4	*	*M3/4	*M3/4	*M3/4	*	*M3/4	*	*M3/4	*	*M3/4	*	*M3/4	*M3/4
=1	=1	=1	=1	=1	=1	=1	=1	=1	=1	=1	=1	=1	=1
*all\right	*	*	*	*	*	*	*	*	*	*	*	*	*
*2\right	*	*	*	*	*	*	*	*	*	*	*	*	*
!LO:TX:b:t=Beatus vir	!	!LO:TX:b:t=Beatus Vir qui timet Dominum	!LO:TX:b:B:t=Beatus Vir.	!LO:TX:b:t=P:problem="B" przed kluczem	!	!	!	!LO:TX:b:t=P:problem="B" przed kluczem	!	!LO:TX:b:t=P:problem="B" przed kluczem	!	!	!
!	!	!	!	!	!	!	!	!	!	!LO:TX:a:t=P:problem=bemole e- b- ee-	!	!	!
!LO:TX:b:t=Tutti	!	!LO:TX:a:t=Tutti	!LO:TX:a:t=Tutti	!LO:TX:a:t=Tutti adagio	!	!	!	!	!	!LO:TX:a:t=Tutti	!	!	!
2B-\	.	4dd\	4ff\	4B-\	Be-	4B-\	Be-	4f\	Be-	4dd\	Be-	2.ryy	2.ryy
.	.	8dd\L	8ff\L	4B-\	-a-	4d\	-a-	4f\	-a-	(8dd\L	-a-	.	.
.	.	8ee-\J	8gg\J	.	.	.	.	.	.	8ee-\J)	.	.	.
4A\	6	4ff\	4aa\	4A\	-tus	4c\	-tus	4c/	-tus	4ff\	-tus,	.	.
=2	=2	=2	=2	=2	=2	=2	=2	=2	=2	=2	=2	=2	=2
*	*	*	*	*2\right	*	*2\right	*	*2\right	*	*2\right	*	*	*
4G\	.	4b-\	4dd\	2G\	Vir	2d\	Vir	2g\	Vir	2b-,<\	Vir,	2.ryy	2.ryy
8F\L	.	8b-\L	8dd\L	.	.	.	.	.	.	.	.	.	.
8E-\J	.	8cc\J	8ee-\J	.	.	.	.	.	.	.	.	.	.
4D/	6	4dd\	4ff\	4D/	qui	4B-\	qui	4f\	qui	4b-\	qui	.	.
=3	=3	=3	=3	=3	=3	=3	=3	=3	=3	=3	=3	=3	=3
2C/	7	4ee-\	4gg\	2C/	ti-	2c\	ti-	2g\	ti-	(4.ee-\	ti-	2.ryy	2.ryy
.	.	8ee-\L	8gg\L	.	.	.	.	.	.	.	.	.	.
.	.	8dd\	8ff\	.	.	.	.	.	.	8dd\)	.	.	.
4F\	7	8ee-\	8gg\	4F\	-met	4c\	-met	4a\	-met	(8ee-\L	-met,	.	.
.	.	8cc\J	8ee-\J	.	.	.	.	.	.	8cc\J)	.	.	.
=4	=4	=4	=4	=4	=4	=4	=4	=4	=4	=4	=4	=4	=4
2.BB-/	.	4.dd\	4.ff\	4.BB-/	Do-	4.B-\	Do-	4.f\	Do-	4.dd\	Do-	2.ryy	2.ryy
.	.	8cc\L	8ee-\L	8BB-/	-mi-	8c\	-mi-	8e-\	-mi-	8cc\	-mi-	.	.
.	.	8b-\	8dd\	4BB-/	-num	4d\	-num	4d\	-num	4b-\	-num,	.	.
.	.	8dd\J	8ff\J	.	.	.	.	.	.	.	.	.	.
=5	=5	=5	=5	=5	=5	=5	=5	=5	=5	=5	=5	=5	=5
4F\	.	4cc\	4ff\	(4F\	in	(4A/	in	(4f\	in	(4cc\	in	2.ryy	2.ryy
4G\	6\	4b-/	4een\	4G\)	.	4B-\)	.	4en\)	.	4b-\)	.	.	.
4A\	6	4a/	4ff\	4A\	man-	4c\	man-	4f\	man-	4a\	man-	.	.
=6	=6	=6	=6	=6	=6	=6	=6	=6	=6	=6	=6	=6	=6
4G\	7	4b-/	4ff\	(4G\	-da-	2B-\	-da-	2f\	-da-	(4b-\	-da-	2.ryy	2.ryy
4c\	.	4a/	8ff\L	4c\)	.	.	.	.	.	4a\)	.	.	.
.	.	.	8ff\	.	.	.	.	.	.	.	.	.	.
4C/	4	4g/	8een\	4C/	-tis	4c\	-tis	4en\	-tis	4g/	-tis,	.	.
.	#	.	8ee\J	.	.	.	.	.	.	.	.	.	.
=7	=7	=7	=7	=7	=7	=7	=7	=7	=7	=7	=7	=7	=7
4F\	.	4a/	4ff\	4.F\	e-	4.c\	e-	4.f\	e-	4.a\	e-	2.ryy	2.ryy
8F\L	.	8b-/L	8ff\L	.	.	.	.	.	.	.	.	.	.
8G\J	6\	8cc/J	8een\J	8G,<\	-jus	8B-\	-jus	8en\	-jus	8b-\	-jus	.	.
4A\	6	4cc\	4ff\	4A\	vo-	4A/	vo-	4f\	vo-	4cc\	vo-	.	.
!	!	!	!LO:LB:g=original	!	!	!	!	!	!	!LO:LB:g=original	!	!	!
=8	=8	=8	=8	=8	=8	=8	=8	=8	=8	=8	=8	=8	=8
4B-\	6	8dd\L	8bb-\L	4B-\	-let	4d\	-let	(8g\L	-let	(8b-\L	-let	2.ryy	2.ryy
.	5	8ff\J	8aa\J	.	.	.	.	8f\J)	.	8a\J)	.	.	.
4c\	.	4ff\	4aa\	(4c\	ni-	(4c\	ni-	(4f\	ni-	2gT/	ni-	.	.
4C/	4	4een\	4ggT\	4C/)	.	4G/)	.	4en\)	.	.	.	.	.
.	#	.	.	.	.	.	.	.	.	.	.	.	.
!LO:LB:g=original	!	!	!	!LO:LB:g=original	!	!	!	!	!	!	!	!	!
=9	=9	=9	=9	=9	=9	=9	=9	=9	=9	=9	=9	=9	=9
4F\	.	4.ff\	4ff\	4F\	-mis	4A/	-mis	4f\	-mis	8f,</	-mis,	2.ryy	2.ryy
.	.	.	.	.	.	.	.	.	.	8ff\	Po-	.	.
4r	.	.	8r	4r	.	4r	.	4r	.	8ff\	-tens	.	.
!	!	!LO:LB:g=original	!	!	!	!	!	!	!	!	!	!	!
.	.	8a/L	8cc\L	.	.	.	.	.	.	8ff\	in	.	.
4r	.	8b-/	8dd\	4r	.	4r	.	4r	.	4ff\	ter-	.	.
.	.	8a/J	8cc\J	.	.	.	.	.	.	.	.	.	.
!	!	!	!	!	!	!LO:LB:g=original	!	!LO:LB:g=original	!	!	!	!	!
=10	=10	=10	=10	=10	=10	=10	=10	=10	=10	=10	=10	=10	=10
4B-\	.	8b-\L	8dd\L	4B-\	Po-	4d\	Po-	4f\	Po-	4f/	-ra,	2.ryy	2.ryy
.	.	8dd\	8ff\	.	.	.	.	.	.	.	.	.	.
4A\	6	8ff\	8aa\	4A\	-tens	4c\	-tens	8f\	-tens	4r	.	.	.
.	.	8ff\	8aa\	.	.	.	.	8f\	in	.	.	.	.
4B-\	.	8dd\	8ff\	4B-\	in	4d\	in	4f\	ter-	4b-\	in	.	.
.	.	8dd\J	8ff\J	.	.	.	.	.	.	.	.	.	.
=11	=11	=11	=11	=11	=11	=11	=11	=11	=11	=11	=11	=11	=11
4A\	6	4ff\	4aa\	4A\	ter-	4c\	ter-	8f,<\	-ra	4cc\	ter-	2.ryy	2.ryy
.	.	.	.	.	.	.	.	8f\	po-	.	.	.	.
4F\	.	8r	8r	4F\	-ra	4A/	-ra	8f\	-tens	4cc\	-ra,	.	.
.	.	8a/L	8cc\L	.	.	.	.	8f\	in	.	.	.	.
4r	.	8b-/	8dd\	4r	.	4r	.	4f\	ter-	4r	.	.	.
.	.	8a/J	8cc\J	.	.	.	.	.	.	.	.	.	.
=12	=12	=12	=12	=12	=12	=12	=12	=12	=12	=12	=12	=12	=12
4BB-/	.	8b-\L	8dd\L	4.BB-/	e-	4.B-\	e-	4F/	-ra	4.dd\	e-	2.ryy	2.ryy
.	.	8dd\	8ff\	.	.	.	.	.	.	.	.	.	.
8BB-/L	.	8dd\	8ff\	.	.	.	.	8f\	e-	.	.	.	.
8C/	.	8cc\	8ee-\	8C/	-rit	8A\	-rit	8e-\	-rit	8cc\	-rit	.	.
8D/	.	8b-\	8dd\	8D/	ſem-	8B-\	ſe-	8d\	ſe-	8b-\	se-	.	.
8E-/J	.	8ee-\J	8gg\J	8E-/	-en	8G/	-men	8g\	-men	8cc\	-men	.	.
=13	=13	=13	=13	=13	=13	=13	=13	=13	=13	=13	=13	=13	=13
4F\	.	8a/L	8cc\L	4F\	e-	4c\	e-	4c/	e-	4a\	e-	2.ryy	2.ryy
.	.	8a/	8cc\	.	.	.	.	.	.	.	.	.	.
!	!	!LO:TX:a:t=P:problem=mixed beam	!	!	!	!	!	!	!	!	!	!	!
4FF/	.	8ff\	8aa\	4FF/	-jus	4c\	-jus	4c,</	-jus	4f/	-ius,	.	.
.	.	8ff\	8aa\	.	.	.	.	.	.	.	.	.	.
8F\L	.	8cc\	8ff\	8F\	ge-	8A/	ge-	8f\	ge-	8cc\	ge-	.	.
8E-\J	4 2	8cc\J	8ff\J	8E-\	-ne-	8A/	-ne-	8f\	-ne-	8cc\	-ne-	.	.
!	!	!	!	!	!	!	!	!	!	!LO:LB:g=original	!	!	!
=14	=14	=14	=14	=14	=14	=14	=14	=14	=14	=14	=14	=14	=14
4D/	.	4dd\	4ff\	4.D/	-ra-	4.B-\	-ra-	4.f\	-ra-	4.dd\	-ra-	2.ryy	2.ryy
8D/L	.	8dd\L	8ff\L	.	.	.	.	.	.	.	.	.	.
8C/	.	8ee-\	8aa\	8C/	-ti-	8A/	-ti-	8e-\	-ti-	8ee-\	-ti-	.	.
8D/	.	8dd\	8ff\	8D/	-o	8B-\	-o	8f,<\	-o	8dd\	-o	.	.
8BB-/J	.	8dd\J	8ff\J	8BB-/	re-	8B-\	re-	8f\	re-	8dd\	re-	.	.
=15	=15	=15	=15	=15	=15	=15	=15	=15	=15	=15	=15	=15	=15
4F\	.	4cc\	4aa\	4F\	-cto-	4A/	-cto-	(8c\L	-cto-	4cc\	-cto-	2.ryy	2.ryy
.	.	.	.	.	.	.	.	8d\J)	.	.	.	.	.
4G\	-6	4b-\	8gg\L	4G\	-rus	4B-\	-rus	4e-\	-rum	4b-\	-rum,	.	.
.	.	.	8aa\J	.	.	.	.	.	.	.	.	.	.
4A\	6	4cc\	4ff\	4A\	be-	4F/	be-	4f\	be-	4cc\	be-	.	.
!	!	!	!LO:LB:g=original	!	!	!	!	!LO:LB:g=original	!	!	!	!	!
=16	=16	=16	=16	=16	=16	=16	=16	=16	=16	=16	=16	=16	=16
4B-\	.	8dd\L	8ff\L	4B-\	-ne-	4.B-\	-ne-	4.f\	-ne-	4.dd\	-ne-	2.ryy	2.ryy
.	.	8dd\	8bb-\	.	.	.	.	.	.	.	.	.	.
4E-\	6 5	8gg\	8bb-\	4E-\	-di-	.	.	.	.	.	.	.	.
.	.	8gg\	8bb-\	.	.	8c\	-di-	8g\	-di-	8ee-\	-di-	.	.
4F\	.	8cc\	8aa\	4F\	-ce-	4A/	-ce-	4f\	-ce-	4cc\	-ce-	.	.
.	.	8cc\J	8aa\J	.	.	.	.	.	.	.	.	.	.
=17	=17	=17	=17	=17	=17	=17	=17	=17	=17	=17	=17	=17	=17
2BB-/	.	8dd\L	8bb-\L	4BB-/	-tur	4d\	-tur	4f\	-tur	4b-\	-tur,	2.ryy	2.ryy
!	!	!	!LO:TX:a:t=Solo.	!	!	!	!	!	!	!	!	!	!
.	.	16dd\L	16ff\L	.	.	.	.	.	.	.	.	.	.
.	.	16cc\JJ	16ee-\JJ	.	.	.	.	.	.	.	.	.	.
.	.	8b-\L	8dd\L	4r	.	4r	.	4r	.	4r	.	.	.
.	.	8dd\J	8ff\J	.	.	.	.	.	.	.	.	.	.
!LO:TX:a:t=Solo	!	!	!	!	!	!	!	!	!	!	!	!	!
4E-\	.	8ee-\L	8gg\L	4r	.	4r	.	4r	.	4r	.	.	.
.	.	16dd\L	16ff\L	.	.	.	.	.	.	.	.	.	.
.	.	16cc\JJ	16ee-\JJ	.	.	.	.	.	.	.	.	.	.
!	!	!LO:LB:g=original	!	!LO:LB:g=original	!	!LO:LB:g=original	!	!	!	!	!	!	!
=18	=18	=18	=18	=18	=18	=18	=18	=18-	=18	=18	=18	=18	=18
!	!	!	!	!	!	!	!	!LO:TX:a:t=27	!	!	!	!	!
!	!	!	!	!LO:N:vis=00	!	!LO:N:vis=00	!	!LO:N:vis=00	!	!LO:N:vis=0	!	!	!
2BB-/	.	8dd\L	8ff\L	0.r	.	0.r	.	0.r	.	1.r	.	2.ryy	2.ryy
.	.	16ff\L	16dd\L	.	.	.	.	.	.	.	.	.	.
.	.	16ee-\JJ	16cc\JJ	.	.	.	.	.	.	.	.	.	.
.	.	8dd\L	8b-\L	.	.	.	.	.	.	.	.	.	.
.	.	8ff\J	8dd\J	.	.	.	.	.	.	.	.	.	.
4EE-/	.	8gg\L	8ee-\L	.	.	.	.	.	.	.	.	.	.
.	.	16ff\L	16dd\L	.	.	.	.	.	.	.	.	.	.
.	.	16ee-\JJ	16cc\JJ	.	.	.	.	.	.	.	.	.	.
=19	=19	=19	=19	=19	=19	=19	=19	=19	=19	=19	=19	=19	=19
4BB-/	.	8ff\L	8dd\L	.	.	.	.	.	.	.	.	2.ryy	2.ryy
.	.	16dd\L	16ff\L	.	.	.	.	.	.	.	.	.	.
.	.	16cc\JJ	16ee-\JJ	.	.	.	.	.	.	.	.	.	.
4E-\	6 5	8b-/L	8dd\L	.	.	.	.	.	.	.	.	.	.
.	.	8g/	8cc\J	.	.	.	.	.	.	.	.	.	.
4F\	4	8f/	8dd\L	.	.	.	.	.	.	.	.	.	.
.	3	8c/J	8ccT\J	.	.	.	.	.	.	.	.	.	.
=20	=20	=20	=20	=20	=20	=20	=20	=20	=20	=20	=20	=20	=20
!	!	!	!	!	!	!	!	!	!	!LO:TX:a:t=Solo	!	!	!
2BB-/	.	4d/	4b-/	.	.	.	.	.	.	8r	.	2.ryy	2.ryy
.	.	.	.	.	.	.	.	.	.	8ff\L	Glo-	.	.
.	.	4r	4r	.	.	.	.	.	.	8dd\	.	.	.
.	.	.	.	.	.	.	.	.	.	8ff\	.	.	.
4B-\	.	4r	4r	.	.	.	.	.	.	8b-\	.	.	.
!	!	!LO:TX:b:t=Verte Cito	!	!	!	!	!	!	!	!	!	!	!
.	.	.	.	.	.	.	.	.	.	8dd\J	.	.	.
!	!	!LO:PB:g=original	!	!	!	!	!	!	!	!	!	!	!
=21	=21	=21	=21	=21	=21	=21	=21	=21	=21	=21	=21	=21	=21
!	!	!LO:N:vis=00	!LO:N:vis=00	!	!	!	!	!	!	!	!	!	!
4A\	6	0.r	0.r	.	.	.	.	.	.	8cc\L	.	2.ryy	2.ryy
.	.	.	.	.	.	.	.	.	.	8ff\	.	.	.
4F\	.	.	.	.	.	.	.	.	.	8a\	.	.	.
.	.	.	.	.	.	.	.	.	.	8cc\	.	.	.
4FF/	.	.	.	.	.	.	.	.	.	8f\	.	.	.
.	.	.	.	.	.	.	.	.	.	8cc\J	.	.	.
=22	=22	=22	=22	=22	=22	=22	=22	=22	=22	=22	=22	=22	=22
!	!	!	!	!LO:N:vis=00	!	!LO:N:vis=00	!	!LO:N:vis=00	!	!	!	!	!
8BB-/L	.	.	.	0.r	.	0.r	.	0.r	.	4.dd\	.	2.ryy	2.ryy
16D/L	.	.	.	.	.	.	.	.	.	.	.	.	.
16C/JJ	.	.	.	.	.	.	.	.	.	.	.	.	.
8BB-/L	.	.	.	.	.	.	.	.	.	.	.	.	.
8D/J	.	.	.	.	.	.	.	.	.	8cc\	-ri-	.	.
!LO:TX:a:t=P:problem=mixed beam	!	!	!	!	!	!	!	!	!	!	!	!	!
8E-\L	.	.	.	.	.	.	.	.	.	4b-\	-a,	.	.
8EE-/J	.	.	.	.	.	.	.	.	.	.	.	.	.
!LO:PB:g=original	!	!	!	!	!	!	!	!	!	!LO:LB:g=original	!	!	!
=23	=23	=23	=23	=23	=23	=23	=23	=23	=23	=23	=23	=23	=23
2.BB-/	.	.	.	.	.	.	.	.	.	4r	.	2.ryy	2.ryy
.	.	.	.	.	.	.	.	.	.	(8dd\L	et	.	.
.	.	.	.	.	.	.	.	.	.	8cc\J)	.	.	.
.	.	.	.	.	.	.	.	.	.	(8dd\L	di-	.	.
.	.	.	.	.	.	.	.	.	.	8ee-\J)	.	.	.
=24	=24	=24	=24	=24	=24	=24	=24	=24	=24	=24	=24	=24	=24
4.F\	.	.	.	.	.	.	.	.	.	8.cc\	-vi-	2.ryy	2.ryy
.	.	.	.	.	.	.	.	.	.	16cc\	-ti-	.	.
.	.	.	.	.	.	.	.	.	.	8cc\	-ae	.	.
8G\	.	.	.	.	.	.	.	.	.	8b-\	in	.	.
4A\	.	.	.	.	.	.	.	.	.	4a\	do-	.	.
=25	=25	=25	=25	=25	=25	=25	=25	=25	=25	=25	=25	=25	=25
!	!	!LO:N:vis=00	!LO:N:vis=00	!	!	!	!	!	!	!	!	!	!
4B-\	6	0.r	0.r	.	.	.	.	.	.	(8dd\L	-mo	2.ryy	2.ryy
.	.	.	.	.	.	.	.	.	.	8g\J)	.	.	.
4c\	.	.	.	.	.	.	.	.	.	2gT/	e-	.	.
4C/	4	.	.	.	.	.	.	.	.	.	.	.	.
.	3	.	.	.	.	.	.	.	.	.	.	.	.
=26	=26	=26	=26	=26	=26	=26	=26	=26	=26	=26	=26	=26	=26
!	!	!	!	!LO:N:vis=00	!	!LO:N:vis=00	!	!LO:N:vis=00	!	!	!	!	!
2F\	.	.	.	0.r	.	0.r	.	0.r	.	4f,</	-jus,	2.ryy	2.ryy
.	.	.	.	.	.	.	.	.	.	(8ff\L	et	.	.
.	.	.	.	.	.	.	.	.	.	8ee-\J)	.	.	.
4r	.	.	.	.	.	.	.	.	.	(8dd\L	ju-	.	.
.	.	.	.	.	.	.	.	.	.	8ff\J)	.	.	.
=27	=27	=27	=27	=27	=27	=27	=27	=27	=27	=27	=27	=27	=27
4r	.	.	.	.	.	.	.	.	.	4.b-\	-sti-	2.ryy	2.ryy
8G\L	-_	.	.	.	.	.	.	.	.	.	.	.	.
8F\J	.	.	.	.	.	.	.	.	.	8b-\	-ti-	.	.
8E-\L	.	.	.	.	.	.	.	.	.	4b-\	-a,	.	.
8G\J	.	.	.	.	.	.	.	.	.	.	.	.	.
=28	=28	=28	=28	=28	=28	=28	=28	=28	=28	=28	=28	=28	=28
2C/	-	.	.	.	.	.	.	.	.	4r	.	2.ryy	2.ryy
.	.	.	.	.	.	.	.	.	.	(8ee-\L	et	.	.
.	.	.	.	.	.	.	.	.	.	8dd\J)	.	.	.
4r	.	.	.	.	.	.	.	.	.	(8cc\L	ju-	.	.
.	.	.	.	.	.	.	.	.	.	8ee-\J)	.	.	.
!	!	!	!	!	!	!	!	!	!	!LO:LB:g=original	!	!	!
=29	=29	=29	=29	=29	=29	=29	=29	=29	=29	=29	=29	=29	=29
!	!	!LO:N:vis=0	!LO:N:vis=0	!	!	!	!	!	!	!	!	!	!
4r	.	1.r	1.r	.	.	.	.	.	.	4.a\	-sti-	2.ryy	2.ryy
8F\L	.	.	.	.	.	.	.	.	.	.	.	.	.
8E-\	.	.	.	.	.	.	.	.	.	8b-\	-ti-	.	.
8D\	.	.	.	.	.	.	.	.	.	4cc\	-a	.	.
8E-\J	.	.	.	.	.	.	.	.	.	.	.	.	.
=30	=30	=30	=30	=30	=30	=30	=30	=30	=30	=30	=30	=30	=30
!	!	!	!	!LO:N:vis=00	!	!LO:N:vis=00	!	!LO:N:vis=00	!	!	!	!	!
8BB-/L	.	.	.	0.r	.	0.r	.	0.r	.	4dd\	e-	2.ryy	2.ryy
16BB-/L	.	.	.	.	.	.	.	.	.	.	.	.	.
16C/JJ	.	.	.	.	.	.	.	.	.	.	.	.	.
8D/L	.	.	.	.	.	.	.	.	.	4b-\	-jus,	.	.
8BB-/J	.	.	.	.	.	.	.	.	.	.	.	.	.
8E-\L	.	.	.	.	.	.	.	.	.	4r	.	.	.
8E-\J	.	.	.	.	.	.	.	.	.	.	.	.	.
=31	=31	=31	=31-	=31	=31	=31	=31	=31	=31	=31	=31	=31	=31
4BB-/	.	8r	8r	.	.	.	.	.	.	4r	.	2.ryy	2.ryy
.	.	16f/LL	16dd\LL	.	.	.	.	.	.	.	.	.	.
.	.	16e-/JJ	16cc\JJ	.	.	.	.	.	.	.	.	.	.
4r	.	8d/L	8b-\L	.	.	.	.	.	.	4b-\	ma-	.	.
.	.	8f/J	8dd\J	.	.	.	.	.	.	.	.	.	.
4r	.	8g/L	8ee-\L	.	.	.	.	.	.	4b-\	-net,	.	.
.	.	16f/L	16dd\L	.	.	.	.	.	.	.	.	.	.
.	.	16e-/JJ	16cc\JJ	.	.	.	.	.	.	.	.	.	.
=32	=32	=32	=32	=32	=32	=32	=32	=32	=32	=32	=32	=32	=32
!	!	!	!LO:TX:a:t=P:problem=mixed beam	!	!	!	!	!	!	!	!	!	!
8r	.	8f/L	8dd\L	.	.	.	.	.	.	2.b-T\	ma-	2.ryy	2.ryy
16BB-/LL	.	16d/L	16f/L	.	.	.	.	.	.	.	.	.	.
16C/JJ	.	16c/JJ	16f/JJ	.	.	.	.	.	.	.	.	.	.
!	!	!	!LO:LB:g=original	!	!	!	!	!	!	!	!	!	!
8D/L	.	8B-/L	8d/L	.	.	.	.	.	.	.	.	.	.
8BB-/J	.	8d/J	8f/J	.	.	.	.	.	.	.	.	.	.
!LO:TX:a:t=P:problem=mixed beam	!	!	!	!	!	!	!	!	!	!	!	!	!
8E-\L	.	8e-/L	8g/L	.	.	.	.	.	.	.	.	.	.
8EE-/J	.	16d/L	16f/L	.	.	.	.	.	.	.	.	.	.
.	.	16c/JJ	16e-/JJ	.	.	.	.	.	.	.	.	.	.
=33	=33	=33	=33	=33	=33	=33	=33	=33	=33	=33	=33	=33	=33
4BB-/	.	4d/	4f/	.	.	.	.	.	.	2b-,<\	-net	2.ryy	2.ryy
4F\	6 4	4r	4r	.	.	.	.	.	.	.	.	.	.
4FF/	5 3	4r	4r	.	.	.	.	.	.	4gg\	in	.	.
=34	=34	=34	=34	=34-	=34	=34	=34	=34	=34	=34	=34	=34	=34
!	!	!LO:N:vis=00	!LO:N:vis=00	!LO:TX:a:t=Solo	!	!LO:N:vis=00	!	!LO:N:vis=00	!	!	!	!	!
4BB-/	.	0.r	0.r	4BB-/	E-	0.r	.	0.r	.	(8ff\L	ſae-	2.ryy	2.ryy
.	.	.	.	.	.	.	.	.	.	8ee-\J)	.	.	.
8AA/L	6	.	.	4.F\	-xor-	.	.	.	.	8dd\	-cu-	.	.
8GG/J	.	.	.	.	.	.	.	.	.	8cc\	-lum	.	.
4FF/	7	.	.	.	.	.	.	.	.	8.ccT\	ſae-	.	.
.	.	.	.	8E-\	-tum	.	.	.	.	.	.	.	.
.	.	.	.	.	.	.	.	.	.	16b-\	-cu-	.	.
=35	=35	=35	=35	=35	=35	=35	=35	=35	=35	=35	=35	=35	=35
4BB-/	.	.	.	2D/	eſt	.	.	.	.	4b-\	-li	2.ryy	2.ryy
!	!	!	!	!	!	!	!	!	!	!LO:TX:b:t=BAS	!	!	!
4D/	.	.	.	.	.	.	.	.	.	4r	.	.	.
4E-\	.	.	.	4G\	in	.	.	.	.	4r	.	.	.
!LO:LB:g=original	!	!	!	!	!	!	!	!	!	!	!	!	!
=36	=36	=36	=36	=36	=36	=36	=36	=36	=36	=36	=36	=36	=36
!	!	!	!	!	!	!	!	!	!	!LO:TX:a:t=30	!	!	!
!	!	!	!	!	!	!	!	!	!	!LO:N:vis=00	!	!	!
2F\	.	.	.	4F\	te-	.	.	.	.	0.r	.	2.ryy	2.ryy
.	.	.	.	8F\	-ne-	.	.	.	.	.	.	.	.
.	.	.	.	8G\	-bris	.	.	.	.	.	.	.	.
4FF/	.	.	.	4A\	lu-	.	.	.	.	.	.	.	.
=37	=37	=37	=37	=37	=37	=37	=37	=37	=37	=37	=37	=37	=37
4GG/	.	.	.	4B-\	-men-	.	.	.	.	.	.	2.ryy	2.ryy
2C/	.	.	.	(4c\	-re-	.	.	.	.	.	.	.	.
.	.	.	.	4C/)	.	.	.	.	.	.	.	.	.
=38	=38	=38	=38	=38	=38	=38	=38	=38	=38	=38	=38	=38	=38
!	!	!LO:N:vis=00	!LO:N:vis=00	!	!	!LO:N:vis=00	!	!LO:N:vis=00	!	!	!	!	!
4FF/	.	0.r	0.r	4F\	-ctis	0.r	.	0.r	.	.	.	2.ryy	2.ryy
4F\	.	.	.	4r	.	.	.	.	.	.	.	.	.
4E-\	.	.	.	4r	.	.	.	.	.	.	.	.	.
=39	=39	=39	=39	=39	=39	=39	=39	=39	=39	=39	=39	=39	=39
2.D/	6	.	.	4B-\	mi-	.	.	.	.	.	.	2.ryy	2.ryy
.	.	.	.	(8B-\L	-ſe-	.	.	.	.	.	.	.	.
.	.	.	.	8c\J)	.	.	.	.	.	.	.	.	.
.	.	.	.	(8B-\L	-ri-	.	.	.	.	.	.	.	.
.	-5	.	.	8A-X\J)	.	.	.	.	.	.	.	.	.
=40	=40	=40	=40	=40	=40	=40	=40	=40	=40	=40	=40	=40	=40
!	!	!	!	!	!	!	!	!	!	!LO:N:vis=00	!	!	!
4E-\	.	.	.	2G\	-cors	.	.	.	.	0.r	.	2.ryy	2.ryy
4E-\	.	.	.	.	.	.	.	.	.	.	.	.	.
4D/	6	.	.	4B-\	et	.	.	.	.	.	.	.	.
=41	=41	=41	=41	=41	=41	=41	=41	=41	=41	=41	=41	=41	=41
2.C/	8	.	.	8c\L	mi-	.	.	.	.	.	.	2.ryy	2.ryy
.	4	.	.	8B-\	.	.	.	.	.	.	.	.	.
.	.	.	.	8c\	.	.	.	.	.	.	.	.	.
.	.	.	.	8d\J	.	.	.	.	.	.	.	.	.
.	.	.	.	(8c\L	-ſe-	.	.	.	.	.	.	.	.
.	.	.	.	8B-\J)	.	.	.	.	.	.	.	.	.
!	!	!	!	!LO:LB:g=original	!	!	!	!	!	!	!	!	!
=42	=42	=42	=42	=42	=42	=42	=42	=42	=42	=42	=42	=42	=42
!	!	!LO:N:vis=00	!LO:N:vis=00	!	!	!LO:N:vis=00	!	!LO:N:vis=00	!	!	!	!	!
4F\	.	0.r	0.r	4A\	-ra-	0.r	.	1.r	.	.	.	2.ryy	2.ryy
4E-\	4 2	.	.	(8G\L	-tor	.	.	.	.	.	.	.	.
.	.	.	.	8F\J)	.	.	.	.	.	.	.	.	.
4D/	6	.	.	4B-\	et	.	.	.	.	.	.	.	.
=43	=43	=43	=43	=43	=43	=43	=43	=43	=43	=43	=43	=43	=43
4E-\	.	.	.	4E-\	ju-	.	.	.	.	.	.	2.ryy	2.ryy
4F\	.	.	.	(4F\	.	.	.	.	.	.	.	.	.
4FF/	5 4	.	.	4FF/)	.	.	.	.	.	.	.	.	.
.	x 3	.	.	.	.	.	.	.	.	.	.	.	.
=44	=44	=44	=44	=44	=44	=44	=44	=44	=44	=44	=44	=44	=44
!	!	!	!	!	!	!	!	!	!	!LO:N:vis=00	!	!	!
2BB-/	3	.	.	4BB-/	-stus	.	.	2.r	.	0.r	.	2.ryy	2.ryy
.	2	.	.	4r	.	.	.	.	.	.	.	.	.
4AA/	6	.	.	4r	.	.	.	.	.	.	.	.	.
=45	=45	=45	=45	=45	=45	=45	=45	=45-	=45	=45	=45	=45	=45
!	!	!	!	!LO:N:vis=00	!	!	!	!LO:TX:b:t=solo	!	!	!	!	!
4BB-/	.	.	.	0.r	.	.	.	4B-/	Ju-	.	.	2.ryy	2.ryy
8C/L	7_	.	.	.	.	.	.	(8c/L	-cun-	.	.	.	.
8D/	.	.	.	.	.	.	.	8d/J)	.	.	.	.	.
8BB-/	.	.	.	.	.	.	.	(8B-/L	-dus	.	.	.	.
8C/J	.	.	.	.	.	.	.	8c/J)	.	.	.	.	.
=46	=46	=46	=46	=46	=46	=46	=46	=46	=46	=46	=46	=46	=46
!	!	!	!LO:TX:b:B:t=A	!	!	!	!	!	!	!	!	!	!
!	!	!LO:N:vis=00	!LO:N:vis=00	!	!	!LO:N:vis=00	!	!	!	!	!	!	!
4D/	6	0.r	0.r	.	.	0.r	.	4d\	ho-	.	.	2.ryy	2.ryy
4BB-/	.	.	.	.	.	.	.	4B-,</	-mo	.	.	.	.
4AA/	.	.	.	.	.	.	.	4f\	qui	.	.	.	.
=47	=47	=47	=47	=47	=47	=47	=47	=47	=47	=47	=47	=47	=47
4GG/	.	.	.	.	.	.	.	8f\L	mi-	.	.	2.ryy	2.ryy
.	.	.	.	.	.	.	.	8g\	.	.	.	.	.
4AA/	.	.	.	.	.	.	.	8f\	.	.	.	.	.
.	.	.	.	.	.	.	.	8e-\J	.	.	.	.	.
4BB-/	.	.	.	.	.	.	.	(8d\L	-ſe-	.	.	.	.
.	.	.	.	.	.	.	.	8c\J)	.	.	.	.	.
=48	=48	=48	=48	=48	=48	=48	=48	=48	=48	=48	=48	=48	=48
!	!	!	!	!	!	!	!	!	!	!LO:N:vis=00	!	!	!
4F\	.	.	.	.	.	.	.	4B-/	-re-	0.r	.	2.ryy	2.ryy
8G\L	.	.	.	.	.	.	.	4c/	-tur	.	.	.	.
8A\	.	.	.	.	.	.	.	.	.	.	.	.	.
8F\	.	.	.	.	.	.	.	4d\	et	.	.	.	.
8G\J	.	.	.	.	.	.	.	.	.	.	.	.	.
=49	=49	=49	=49	=49	=49	=49	=49	=49	=49	=49	=49	=49	=49
!	!	!	!	!LO:N:vis=00	!	!	!	!	!	!	!	!	!
4A\	6	.	.	0.r	.	.	.	4.c/	co-	.	.	2.ryy	2.ryy
4F\	.	.	.	.	.	.	.	.	.	.	.	.	.
.	.	.	.	.	.	.	.	8B-/	-mo-	.	.	.	.
!	!	!	!	!	!	!	!	!LO:TX:b:t=v	!	!	!	!	!
4r	.	.	.	.	.	.	.	4c/	-dat	.	.	.	.
=50	=50	=50	=50	=50	=50	=50	=50	=50	=50	=50	=50	=50	=50
!	!	!	!	!	!	!LO:N:vis=00	!	!	!	!	!	!	!
4F\	.	8r	8r	.	.	0.r	.	4r	.	.	.	2.ryy	2.ryy
.	.	16a/LL	16cc\LL	.	.	.	.	.	.	.	.	.	.
.	.	16g/JJ	16b-\JJ	.	.	.	.	.	.	.	.	.	.
4r	.	8f/L	8a\L	.	.	.	.	4r	.	.	.	.	.
.	.	8a/J	8cc\J	.	.	.	.	.	.	.	.	.	.
4r	.	8b-/L	8dd\L	.	.	.	.	4f\	di-	.	.	.	.
.	.	16a/L	16cc\L	.	.	.	.	.	.	.	.	.	.
.	.	16g/JJ	16b-\JJ	.	.	.	.	.	.	.	.	.	.
!	!	!	!	!	!	!	!	!LO:LB:g=original	!	!	!	!	!
=51	=51	=51	=51	=51	=51	=51	=51	=51	=51	=51	=51	=51	=51
8r	.	8a/L	8cc\L	.	.	.	.	2.fT\	-ſpo-	.	.	2.ryy	2.ryy
16F\LL	.	16cc/L	16aa\L	.	.	.	.	.	.	.	.	.	.
16G\JJ	.	16b-/JJ	16gg\JJ	.	.	.	.	.	.	.	.	.	.
!LO:LB:g=original	!	!	!	!	!	!	!	!	!	!	!	!	!
8A\L	.	8a/L	8ff\L	.	.	.	.	.	.	.	.	.	.
8F\J	.	8cc/J	8aa\J	.	.	.	.	.	.	.	.	.	.
!LO:TX:a:t=P:problem=mixed beam	!	!	!	!	!	!	!	!	!	!	!	!	!
8B-\L	.	8dd\L	8bb-\L	.	.	.	.	.	.	.	.	.	.
8BB-/J	.	8cc\J	16aa\L	.	.	.	.	.	.	.	.	.	.
.	.	.	16gg\JJ	.	.	.	.	.	.	.	.	.	.
!	!	!LO:LB:g=original	!	!	!	!	!	!	!	!	!	!	!
=52	=52	=52	=52	=52	=52	=52	=52	=52	=52	=52	=52	=52	=52
!	!	!	!	!	!	!	!	!	!	!LO:N:vis=00	!	!	!
4F\	.	4cc\	4aa\	.	.	.	.	2f\	-net	0.r	.	2.ryy	2.ryy
4G\	7	4r	4r	.	.	.	.	.	.	.	.	.	.
.	6\	.	.	.	.	.	.	.	.	.	.	.	.
4A\	6	4r	4r	.	.	.	.	4f\	ſer-	.	.	.	.
=53	=53	=53	=53	=53	=53	=53	=53	=53	=53	=53	=53	=53	=53
!LO:TX:a:t=P:problem=brak taktu	!	!LO:N:vis=00	!LO:N:vis=00	!LO:N:vis=00	!	!	!	!	!	!	!	!	!
2.ryy	.	0.r	0.r	0.r	.	.	.	4.f\	-mo-	.	.	2.ryy	2.ryy
.	.	.	.	.	.	.	.	8en\	-nes	.	.	.	.
.	.	.	.	.	.	.	.	4f\	ſu-	.	.	.	.
=54	=54	=54	=54	=54	=54	=54	=54	=54	=54	=54	=54	=54	=54
!	!	!	!	!	!	!LO:N:vis=00	!	!	!	!	!	!	!
4B-\	.	.	.	.	.	0.r	.	4d\	-os	.	.	2.ryy	2.ryy
8G\L	.	.	.	.	.	.	.	4g\	in	.	.	.	.
8A\J	.	.	.	.	.	.	.	.	.	.	.	.	.
4B-\	.	.	.	.	.	.	.	4f\	ju-	.	.	.	.
=55	=55	=55	=55	=55	=55	=55	=55	=55	=55	=55	=55	=55	=55
8c\L	n	.	.	.	.	.	.	4.en\	-di-	.	.	2.ryy	2.ryy
8d\	.	.	.	.	.	.	.	.	.	.	.	.	.
8c\	.	.	.	.	.	.	.	.	.	.	.	.	.
8B-\	.	.	.	.	.	.	.	8d\	-ti-	.	.	.	.
8A\	.	.	.	.	.	.	.	4c/	-o	.	.	.	.
8G\J	.	.	.	.	.	.	.	.	.	.	.	.	.
=56	=56	=56	=56	=56	=56	=56	=56	=56	=56	=56	=56	=56	=56
!	!	!	!	!	!	!	!	!	!	!LO:N:vis=00	!	!	!
4F\	.	.	.	.	.	.	.	4r	.	0.r	.	2.ryy	2.ryy
4FF/	.	.	.	.	.	.	.	4c/	qui-	.	.	.	.
4r	.	.	.	.	.	.	.	4f\	-a	.	.	.	.
=57	=57	=57	=57	=57	=57	=57	=57	=57	=57	=57	=57	=57	=57
!	!	!LO:N:vis=00	!LO:N:vis=00	!LO:N:vis=00	!	!	!	!	!	!	!	!	!
4BB-/	.	0.r	0.r	0.r	.	.	.	2d\	in	.	.	2.ryy	2.ryy
4GG/	7	.	.	.	.	.	.	.	.	.	.	.	.
4C/	n	.	.	.	.	.	.	4en\	ae-	.	.	.	.
=58	=58	=58	=58	=58	=58	=58	=58	=58	=58	=58	=58	=58	=58
!	!	!	!	!	!	!LO:N:vis=00	!	!	!	!	!	!	!
4F\	.	.	.	.	.	0.r	.	4f\	-ter-	.	.	2.ryy	2.ryy
4r	.	.	.	.	.	.	.	4c/	-num	.	.	.	.
4r	.	.	.	.	.	.	.	4f\	non	.	.	.	.
=59	=59	=59	=59	=59	=59	=59	=59	=59	=59	=59	=59	=59	=59
8B-\L	.	.	.	.	.	.	.	4d\	non	.	.	2.ryy	2.ryy
8A\	.	.	.	.	.	.	.	.	.	.	.	.	.
8B-\	.	.	.	.	.	.	.	4r	.	.	.	.	.
8c\	.	.	.	.	.	.	.	.	.	.	.	.	.
8B-\	.	.	.	.	.	.	.	4r	.	.	.	.	.
8A\J	.	.	.	.	.	.	.	.	.	.	.	.	.
=60	=60	=60	=60	=60	=60	=60	=60	=60	=60	=60	=60	=60	=60
!	!	!	!	!	!	!	!	!	!	!LO:N:vis=00	!	!	!
8G\L	.	.	.	.	.	.	.	4g\	non	0.r	.	2.ryy	2.ryy
8F\	.	.	.	.	.	.	.	.	.	.	.	.	.
!	!	!	!	!	!	!	!	!LO:LB:g=original	!	!	!	!	!
8G\	.	.	.	.	.	.	.	4r	.	.	.	.	.
8A\	.	.	.	.	.	.	.	.	.	.	.	.	.
8B-\	.	.	.	.	.	.	.	4g\	non	.	.	.	.
8G\J	.	.	.	.	.	.	.	.	.	.	.	.	.
=61	=61	=61	=61	=61	=61	=61	=61	=61	=61	=61	=61	=61	=61
!	!	!LO:N:vis=00	!LO:N:vis=00	!LO:N:vis=00	!	!	!	!	!	!	!	!	!
8c\L	n	0.r	0.r	0.r	.	.	.	4en\	.	.	.	2.ryy	2.ryy
8B-\	.	.	.	.	.	.	.	.	.	.	.	.	.
8c\	.	.	.	.	.	.	.	4r	.	.	.	.	.
8d\	.	.	.	.	.	.	.	.	.	.	.	.	.
8c\	.	.	.	.	.	.	.	4r	.	.	.	.	.
8B-\J	.	.	.	.	.	.	.	.	.	.	.	.	.
=62	=62	=62	=62	=62	=62	=62	=62	=62	=62	=62	=62	=62	=62
!	!	!	!	!	!	!LO:N:vis=00	!	!	!	!	!	!	!
8A\L	.	.	.	.	.	0.r	.	4a\	non	.	.	2.ryy	2.ryy
8G\	.	.	.	.	.	.	.	.	.	.	.	.	.
8A\	.	.	.	.	.	.	.	4r	.	.	.	.	.
8B-\	.	.	.	.	.	.	.	.	.	.	.	.	.
8c\	.	.	.	.	.	.	.	4a\	non	.	.	.	.
8A\J	.	.	.	.	.	.	.	.	.	.	.	.	.
!LO:LB:g=original	!	!	!	!	!	!	!	!	!	!	!	!	!
=63	=63	=63	=63	=63	=63	=63	=63	=63	=63	=63	=63	=63	=63
8d\L	n3	.	.	.	.	.	.	4f\	n(on)	.	.	2.ryy	2.ryy
8c\	.	.	.	.	.	.	.	.	.	.	.	.	.
8B-\	.	.	.	.	.	.	.	4r	.	.	.	.	.
8A\	.	.	.	.	.	.	.	.	.	.	.	.	.
8G\	.	.	.	.	.	.	.	4r	.	.	.	.	.
8F\J	.	.	.	.	.	.	.	.	.	.	.	.	.
=64	=64	=64	=64	=64	=64	=64	=64	=64	=64	=64	=64	=64	=64
!	!	!	!	!	!	!	!	!	!	!LO:N:vis=0	!	!	!
2En\	-5	.	.	.	.	.	.	8b-\	n(on)	1.r	.	2.ryy	2.ryy
.	.	.	.	.	.	.	.	8a\	n(on)	.	.	.	.
.	.	.	.	.	.	.	.	8g\	n(on)	.	.	.	.
.	.	.	.	.	.	.	.	8f\	n(on)	.	.	.	.
8c\L	n	.	.	.	.	.	.	4en\	com-	.	.	.	.
8B-\J	.	.	.	.	.	.	.	.	.	.	.	.	.
=65	=65	=65	=65	=65	=65	=65	=65	=65	=65	=65	=65	=65	=65
!	!	!	!	!LO:TX:a:t=P:problem=brak taktu	!	!	!	!	!	!	!	!	!
8A\L	6	2.r	2.r	2.ryy	.	.	.	(8f\L	-mo-	.	.	2.ryy	2.ryy
8B-\J	6	.	.	.	.	.	.	8g\J)	.	.	.	.	.
4c\	.	.	.	.	.	.	.	4.gT\	-ve-	.	.	.	.
4C/	4	.	.	.	.	.	.	.	.	.	.	.	.
.	3	.	.	.	.	.	.	8f\	-bi-	.	.	.	.
!	!	!	!	!	!	!	!	!	!	!LO:LB:g=original	!	!	!
=66	=66	=66	=66	=66	=66	=66-	=66	=66	=66	=66	=66	=66	=66
!	!	!	!	!	!	!	!	!	!	!LO:TX:a:t=Tutti	!	!	!
4FF/	.	4r	4r	4r	.	4r	.	4f,<\	-tur	4r	.	2.ryy	2.ryy
!LO:TX:a:t=Tutti	!	!LO:TX:a:B:t=Tutti	!LO:TX:b:i:t=Tutti&colon;	!LO:TX:a:t=Tutti	!	!	!	!LO:TX:a:t=Tut	!	!	!	!	!
4F\	.	4ff\	4aa\	4F\	In	4A/	In	4f\	In	4cc\	In	.	.
4C/	.	4een\	4gg\	4C/	me-	4c\	me-	4en\	me-	4een\	Me-	.	.
=67	=67	=67	=67	=67	=67	=67	=67	=67	=67	=67	=67	=67	=67
4.F\	.	4ff\	4aa\	4.F\	-mo-	4.A\	-mo-	4.f\	-mo-	4.cc\	-mo-	2.ryy	2.ryy
.	.	8ff\L	8aa\L	.	.	.	.	.	.	.	.	.	.
8G\L	6\	8een\	8bb-\	8G\	-ri-	8B-\	-ri-	8en\	-ri-	8b-\	-ri-	.	.
8A\	6	8cc\	8ccc\	8A\	-a	8A/	-a	8f\	-a	8cc\	-a,	.	.
8F\J	.	8ff\J	8aa\J	8F\	ae-	8A/	ae-	8f\	ae-	8a\	ae-	.	.
!	!	!	!LO:LB:g=original	!	!	!	!	!LO:LB:g=original	!	!	!	!	!
=68	=68	=68	=68	=68	=68	=68	=68	=68	=68	=68	=68	=68	=68
4.c\	n	4.een\	4.gg\	4.c\	-ter-	4.c\	-ter-	4.e-\	-ter-	4.g/	-ter-	2.ryy	2.ryy
8B-\	n4 2	8ee\	8gg\	8B-\	-na	8c\	-na	8e-\	-na	8g/	-na	.	.
4A\	6	[4ff\	4aa\	4A\	e-	4c\	e-	4f\	e-	4a\	e-	.	.
=69	=69	=69	=69	=69	=69	=69	=69	=69	=69	=69	=69	=69	=69
4B-\	6 5	4ff\]	4gg\	4B-\	-rit	4d\	-rit	4f\	-rit	4g/	-rit	2.ryy	2.ryy
4c\	.	4ff\	4.ggT\	(4c\	ju-	(4c\	ju-	(4f\	ju-	2gT/	jus-	.	.
4C/	4	4een\	.	4C/)	.	4G/)	.	4en\)	.	.	.	.	.
.	3	.	8ff\	.	.	.	.	.	.	.	.	.	.
=70	=70	=70	=70	=70	=70	=70	=70	=70	=70	=70	=70	=70	=70
!LO:TX:a:t=f	!	!	!	!	!	!	!	!	!	!	!	!	!
2F\	.	4ff\	4ff\	4F,<\	-stus	4A,<\	-stus	4f,<\	-ſtus	4f,</	-tus	2.ryy	2.ryy
.	.	4ff\	4aa\	4F\	ab	4c\	ab	4a\	ab	4ff\	ab	.	.
4G\	6\	4een\	4gg\	4G\	au-	4B-\	au-	4g\	au-	4een\	au-	.	.
!	!	!	!	!LO:LB:g=original	!	!	!	!	!	!	!	!	!
=71	=71	=71	=71	=71	=71	=71	=71	=71	=71	=71	=71	=71	=71
4.A\	6	4.ff\	4.ccc\	4.A\	-di-	4.A/	-di-	4.f\	-di-	4.ff\	-di-	2.ryy	2.ryy
8G\L	6\	8gg\L	8bb-\L	8G\	-ti-	8B-\	-ti-	8g\	-ti-	8b-\	-ti-	.	.
8A\	6	8ff\	8aa\	8A\	-o	8c\	-o	8f\	-o	8a\	-o-	.	.
8F\J	.	8cc\J	8bb-\J	8G\	ne	8B-\	ne	8f\	ne	8b-\	-ne	.	.
!	!	!	!	!	!	!LO:LB:g=original	!	!	!	!	!	!	!
=72	=72	=72	=72	=72	=72	=72	=72	=72	=72	=72	=72	=72	=72
4En\	6	8een\L	8gg\L	4En\	ma-	4c\	ma-	4g\	ma-	4g/	ma-	2.ryy	2.ryy
.	.	8gg\J	8cc\	.	.	.	.	.	.	.	.	.	.
!	!	!LO:TX:a:t=P:problem=mixed beam	!	!	!	!	!	!	!	!	!	!	!
4C/	.	8g/L	8een\	4C/	-la	4c\	-la	4g\	-la	4g/	-la	.	.
.	.	8een\J	8gg\	.	.	.	.	.	.	.	.	.	.
4F\	.	8ff\L	8aa\	4F\	non	4r	.	4a\	non	4r	.	.	.
!	!	!LO:TX:a:t=P:problem=niewidoczna ostatnia ósemka	!	!	!	!	!	!	!	!	!	!	!
.	.	8dd\Jyy	8ff\J	.	.	.	.	.	.	.	.	.	.
!	!	!LO:LB:g=original	!	!	!	!	!	!	!	!LO:PB:g=original	!	!	!
=73	=73	=73	=73	=73	=73	=73	=73	=73	=73	=73	=73	=73	=73
4En\	6	8een\L	8gg\L	4En\	n(on)	4r	.	4g\	n(on)	4cc\	non	2.ryy	2.ryy
.	.	8gg\J	8cc\	.	.	.	.	.	.	.	.	.	.
!	!	!LO:TX:a:t=P:problem=mixed beam	!	!	!	!	!	!	!	!	!	!	!
4C/	.	8g/L	8een\	4r	.	4c\	non	4r	.	4een\	n(on)	.	.
.	.	8een\J	8gg\	.	.	.	.	.	.	.	.	.	.
4F\	.	8ff\L	8aa\	4F\	non	4A/	n(on)	4f\	non	4cc\	n(on)	.	.
.	.	8cc\J	8ff\J	.	.	.	.	.	.	.	.	.	.
=74	=74	=74	=74	=74	=74	=74	=74	=74	=74	=74	=74	=74	=74
4BB-/	6 5	4dd\	4gg\	4BB-/	ti-	(8B-\L	ti-	4f\	ti-	4dd\	ti-	2.ryy	2.ryy
.	.	.	.	.	.	8A\J)	.	.	.	.	.	.	.
2C/	4	4cc\	4.ggT\	2C/	-me-	(4G/	-me-	(4f\	-me-	2gT/	-me-	.	.
.	3	4b-/	.	.	.	4c\)	.	4en\)	.	.	.	.	.
.	.	.	8ff\	.	.	.	.	.	.	.	.	.	.
=75	=75	=75	=75	=75	=75	=75	=75	=75	=75	=75	=75	=75	=75
4FF/	.	4a/	4ff\	4F\	-bit	4A,</	-bit	4f\	-bit	4f/	-bit,	2.ryy	2.ryy
!LO:TX:a:t=Solo	!	!	!	!	!	!LO:TX:a:t=Solo	!	!	!	!	!	!	!
4F\	.	4r	4r	4r	.	(4A/	Pa-	4r	.	4r	.	.	.
4G\	6\	4r	4r	4r	.	4B-\)	.	4r	.	4r	.	.	.
!LO:LB:g=original	!	!	!	!	!	!	!	!	!	!	!	!	!
=76	=76	=76	=76	=76	=76	=76	=76	=76-	=76	=76	=76	=76	=76
!	!	!LO:N:vis=00	!LO:N:vis=00	!LO:N:vis=00	!	!	!	!LO:N:vis=00	!	!LO:N:vis=00	!	!	!
4A\	6	0.r	0.r	0.r	.	4c\	-ra-	0.r	.	0.r	.	2.ryy	2.ryy
8B-\L	.	.	.	.	.	4d\	-tum	.	.	.	.	.	.
8A\J	.	.	.	.	.	.	.	.	.	.	.	.	.
4G\	6\	.	.	.	.	4en\	cor	.	.	.	.	.	.
=77	=77	=77	=77	=77	=77	=77	=77	=77	=77	=77	=77	=77	=77
4A\	.	.	.	.	.	4f\	e-	.	.	.	.	2.ryy	2.ryy
4B-\	.	.	.	.	.	(8en\L	-jus	.	.	.	.	.	.
.	.	.	.	.	.	8d\J)	.	.	.	.	.	.	.
4En\	6	.	.	.	.	(8c\L	ſpe-	.	.	.	.	.	.
.	5	.	.	.	.	8B-\J)	.	.	.	.	.	.	.
=78	=78	=78	=78	=78	=78	=78	=78	=78	=78	=78	=78	=78	=78
2F\	.	.	.	.	.	4A/	-ra-	.	.	.	.	2.ryy	2.ryy
.	.	.	.	.	.	(8B-\L	-re	.	.	.	.	.	.
.	.	.	.	.	.	8A\J)	.	.	.	.	.	.	.
4F\	.	.	.	.	.	(8G/L	in	.	.	.	.	.	.
.	.	.	.	.	.	8F/J)	.	.	.	.	.	.	.
!	!	!	!	!	!	!LO:LB:g=original	!	!	!	!	!	!	!
=79	=79	=79	=79	=79	=79	=79	=79	=79	=79	=79	=79	=79	=79
4En\	.	.	.	.	.	4.c\	Do-	.	.	.	.	2.ryy	2.ryy
4D/	.	.	.	.	.	.	.	.	.	.	.	.	.
.	.	.	.	.	.	8c\	-mi-	.	.	.	.	.	.
4C/	.	.	.	.	.	4c\	-no	.	.	.	.	.	.
=80	=80	=80	=80	=80	=80	=80	=80	=80	=80	=80	=80	=80	=80
!	!	!LO:N:vis=00	!LO:N:vis=00	!LO:N:vis=0	!	!	!	!LO:N:vis=00	!	!LO:N:vis=00	!	!	!
4F\	.	0.r	0.r	1.r	.	4r	.	0.r	.	0.r	.	2.ryy	2.ryy
4C/	n	.	.	.	.	4c\	Con-	.	.	.	.	.	.
4En\	.	.	.	.	.	4B-\	-fir-	.	.	.	.	.	.
=81	=81	=81	=81	=81	=81	=81	=81	=81	=81	=81	=81	=81	=81
4F\	.	.	.	.	.	4A/	-ma-	.	.	.	.	2.ryy	2.ryy
2BB-/	6	.	.	.	.	(8B-\L	-tum	.	.	.	.	.	.
.	.	.	.	.	.	8c\J)	.	.	.	.	.	.	.
.	.	.	.	.	.	(8B-\L	eſt	.	.	.	.	.	.
.	5	.	.	.	.	8A\J)	cor	.	.	.	.	.	.
=82	=82	=82	=82	=82-	=82	=82	=82	=82	=82	=82	=82	=82	=82
!	!	!	!	!LO:TX:a:t=Solo	!	!	!	!	!	!	!	!	!
4C/	n	.	.	4c\	Dis-	2G/	e-	.	.	.	.	2.ryy	2.ryy
4c\	.	.	.	4c\	-per-	.	.	.	.	.	.	.	.
4B-\	.	.	.	4B-\	-sit	4G/	-jus	.	.	.	.	.	.
=83	=83	=83	=83	=83	=83	=83	=83	=83	=83	=83	=83	=83	=83
4A\	6	.	.	4A\	de-	4c\	non	.	.	.	.	2.ryy	2.ryy
4En\	6	.	.	4En\	-dit	(8c\L	Com-	.	.	.	.	.	.
.	.	.	.	.	.	8B-\J)	.	.	.	.	.	.	.
4C/	n	.	.	4C/	pau-	(8A/L	-mo-	.	.	.	.	.	.
.	.	.	.	.	.	8G/J)	.	.	.	.	.	.	.
=84	=84	=84	=84	=84	=84	=84	=84	=84	=84	=84	=84	=84	=84
!	!	!LO:N:vis=00	!LO:N:vis=00	!	!	!	!	!LO:N:vis=00	!	!LO:N:vis=00	!	!	!
4F\	.	0.r	0.r	4.F\	-pe-	4.A/	-ve-	0.r	.	0.r	.	2.ryy	2.ryy
8F\L	.	.	.	.	.	.	.	.	.	.	.	.	.
8En\	.	.	.	8F\	-ri-	8G/	-bi-	.	.	.	.	.	.
8D\	.	.	.	4F\	-bus	4F/	-tur	.	.	.	.	.	.
8C\J	.	.	.	.	.	.	.	.	.	.	.	.	.
=85	=85	=85	=85	=85	=85	=85	=85	=85	=85	=85	=85	=85	=85
2.D\	#	.	.	4r	.	4d\	do-	.	.	.	.	2.ryy	2.ryy
.	.	.	.	4r	.	(8d\L	-nec	.	.	.	.	.	.
.	.	.	.	.	.	8c\J)	.	.	.	.	.	.	.
.	.	.	.	4D/	ju-	(8B-\L	de-	.	.	.	.	.	.
.	.	.	.	.	.	8A\J)	.	.	.	.	.	.	.
!	!	!	!	!LO:LB:g=original	!	!	!	!	!	!	!	!	!
=86	=86	=86	=86	=86	=86	=86	=86	=86	=86	=86	=86	=86	=86
4G\	-	.	.	4G\	-sti-	4.B-\	-ſpi-	.	.	.	.	2.ryy	2.ryy
8G\L	.	.	.	8G\	-ti-	.	.	.	.	.	.	.	.
8F\	.	.	.	8F\	-a	8A/	-ci-	.	.	.	.	.	.
8E-\	.	.	.	8E-X\	e-	4G/	-at	.	.	.	.	.	.
8D\J	.	.	.	8D/	-jus	.	.	.	.	.	.	.	.
!	!	!	!	!	!	!LO:LB:g=original	!	!	!	!	!	!	!
=87	=87	=87	=87	=87	=87	=87	=87	=87	=87	=87	=87	=87	=87
2C/	-	.	.	4C/	ma-	4.e-\	i-	.	.	.	.	2.ryy	2.ryy
.	.	.	.	4C/	-net	.	.	.	.	.	.	.	.
.	.	.	.	.	.	8d\	-ni-	.	.	.	.	.	.
4F#X\	5	.	.	4A\	in	4c\	-mi-	.	.	.	.	.	.
=88	=88	=88	=88	=88	=88	=88	=88	=88	=88	=88	=88	=88	=88
!	!	!LO:N:vis=00	!LO:N:vis=00	!	!	!	!	!LO:N:vis=00	!	!LO:N:vis=00	!	!	!
4G\	-	0.r	0.r	4D/	ſae-	(8B-\L	-cos	0.r	.	0.r	.	2.ryy	2.ryy
.	.	.	.	.	.	8A\J)	.	.	.	.	.	.	.
4D\	.	.	.	8D/	-cu-	2At/	ſu-	.	.	.	.	.	.
.	.	.	.	8G\	-lum	.	.	.	.	.	.	.	.
4DD/	4	.	.	8.F#X\	ſae-	.	.	.	.	.	.	.	.
.	3	.	.	16F#\	-cu-	.	.	.	.	.	.	.	.
=89	=89	=89	=89	=89	=89	=89	=89	=89	=89	=89	=89	=89	=89
4GG/	-	.	.	4G,<\	-li	4G/	-os	.	.	.	.	2.ryy	2.ryy
4G\	.	.	.	4G\	Cor-	4r	.	.	.	.	.	.	.
4D\	#	.	.	4A\	-nu	4r	.	.	.	.	.	.	.
!LO:LB:g=original	!	!	!	!	!	!	!	!	!	!	!	!	!
=90	=90	=90	=90	=90	=90	=90-	=90	=90	=90	=90	=90	=90	=90
!	!	!	!	!	!	!LO:N:vis=00	!	!	!	!	!	!	!
8GG/L	.	.	.	2B-\	e-	0.r	.	.	.	.	.	2.ryy	2.ryy
8AA/	.	.	.	.	.	.	.	.	.	.	.	.	.
8BB-/	.	.	.	.	.	.	.	.	.	.	.	.	.
8C/J	.	.	.	.	.	.	.	.	.	.	.	.	.
4D/	#	.	.	4F#X\	-jus	.	.	.	.	.	.	.	.
=91	=91	=91	=91	=91	=91	=91	=91	=91	=91	=91	=91	=91	=91
2E-X\	.	.	.	8G\L	ex-	.	.	.	.	.	.	2.ryy	2.ryy
.	.	.	.	8F\	.	.	.	.	.	.	.	.	.
.	.	.	.	8G\	.	.	.	.	.	.	.	.	.
.	.	.	.	8A\J	.	.	.	.	.	.	.	.	.
4C/	-7	.	.	(8B-\L	-al-	.	.	.	.	.	.	.	.
.	.	.	.	8c\J)	.	.	.	.	.	.	.	.	.
=92	=92	=92	=92	=92	=92	=92	=92	=92	=92	=92	=92	=92	=92
!	!	!LO:N:vis=00	!LO:N:vis=00	!	!	!	!	!LO:N:vis=00	!	!LO:N:vis=00	!	!	!
4F\	3	0.r	0.r	4.A\	-ta-	.	.	0.r	.	0.r	.	2.ryy	2.ryy
4E-\	.	.	.	.	.	.	.	.	.	.	.	.	.
.	.	.	.	8F\	-bi-	.	.	.	.	.	.	.	.
4D/	6	.	.	4B-\	-tur	.	.	.	.	.	.	.	.
=93	=93	=93	=93	=93	=93	=93	=93	=93	=93	=93	=93	=93	=93
4E-\	.	.	.	4E-\	in	.	.	.	.	.	.	2.ryy	2.ryy
4F\	.	.	.	4.F\	glo-	.	.	.	.	.	.	.	.
4FF/	.	.	.	.	.	.	.	.	.	.	.	.	.
.	.	.	.	8F\	-ri-	.	.	.	.	.	.	.	.
!	!	!	!	!LO:PB:g=original	!	!	!	!	!	!	!	!	!
=94	=94	=94	=94	=94	=94	=94	=94	=94	=94	=94	=94	=94	=94
!	!	!	!	!	!	!LO:N:vis=00	!	!	!	!	!	!	!
8BB-/L	.	.	.	4BB-,</	-a	0.r	.	.	.	.	.	2.ryy	2.ryy
8AA/	.	.	.	.	.	.	.	.	.	.	.	.	.
8BB-/	.	.	.	4B-\	e-	.	.	.	.	.	.	.	.
8C/	.	.	.	.	.	.	.	.	.	.	.	.	.
8D/	.	.	.	4F\	-xal-	.	.	.	.	.	.	.	.
8BB-/J	.	.	.	.	.	.	.	.	.	.	.	.	.
=95	=95	=95	=95	=95	=95	=95	=95	=95	=95	=95	=95	=95	=95
2E-\	.	.	.	8G\L	-ta-	.	.	.	.	.	.	2.ryy	2.ryy
.	.	.	.	8F\	.	.	.	.	.	.	.	.	.
.	.	.	.	8G\	.	.	.	.	.	.	.	.	.
.	.	.	.	8A\	.	.	.	.	.	.	.	.	.
4C/	7	.	.	8B-\	.	.	.	.	.	.	.	.	.
.	.	.	.	8G\J	.	.	.	.	.	.	.	.	.
=96	=96	=96	=96	=96	=96	=96	=96	=96	=96	=96	=96	=96	=96
!	!	!LO:N:vis=0	!LO:N:vis=0	!	!	!	!	!LO:N:vis=0	!	!LO:N:vis=0	!	!	!
4F\	.	1.r	1.r	4.A\	.	.	.	1.r	.	1.r	.	2.r	2.r
4E-\	4 2	.	.	.	.	.	.	.	.	.	.	.	.
.	.	.	.	8F\	-bi-	.	.	.	.	.	.	.	.
4D/	6	.	.	4B-\	-tur	.	.	.	.	.	.	.	.
=97	=97	=97	=97	=97	=97	=97	=97	=97	=97	=97	=97	=97	=97
4E-\	.	.	.	4c\	in	.	.	.	.	.	.	2.ryy	2.ryy
4F\	.	.	.	4F\	glo-	.	.	.	.	.	.	.	.
!	!	!	!	!	!	!	!	!LO:TX:a:t=P:problem=podwójna kreska taktowa	!	!	!	!	!
4FF/	.	.	.	4A\	-ri-	.	.	.	.	.	.	.	.
!	!	!	!LO:LB:g=original	!	!	!	!	!LO:LB:g=original	!	!	!	!	!
=98	=98	=98	=98	=98	=98	=98	=98	=98	=98	=98	=98	=98	=98
*M4/4	*	*M4/4	*M4/4	*M4/4	*	*M4/4	*	*M4/4	*	*M4/4	*	*M4/4	*M4/4
*met(C.)	*	*met(c|)	*met(C.)	*met(C.)	*	*met(c|)	*	*met(c|)	*	*met(C.)	*	*met(c)	*met(c)
!	!	!LO:TX:b:B:t=Tutti	!LO:TX:a:t=Tutti	!	!	!	!	!	!	!	!	!	!
!	!	!LO:TX:a:B:t=Allegro	!LO:TX:b:t=allegro.	!LO:TX:a:i:t=Tutti Allegro	!	!	!	!	!	!LO:TX:a:t=Allegro. Tutti	!	!	!
4BB-/	.	4r	4r	4B-,<\	-a	4r	.	4r	.	4r	.	1ryy	1ryy
2B-\	.	16dd\LL	16bb-\LL	4B-\	Pec-	4d\	Pec-	4f\	Pec-	4b-\	Pec-	.	.
.	.	16dd\	16bb-\	.	.	.	.	.	.	.	.	.	.
.	.	16dd\	16bb-\	.	.	.	.	.	.	.	.	.	.
.	.	16dd\JJ	16bb-\JJ	.	.	.	.	.	.	.	.	.	.
.	4 2	16ee-\LL	16gg\LL	4B-\	-ca-	4c\	-ca-	4e-\	-ca-	4cc\	-ca-	.	.
.	.	16ee-\	16gg\	.	.	.	.	.	.	.	.	.	.
.	.	16ee-\	16gg\	.	.	.	.	.	.	.	.	.	.
.	.	16ee-\JJ	16gg\JJ	.	.	.	.	.	.	.	.	.	.
4A\	6	16ff\LL	16aa\LL	8A\	-tor	8c\	-tor	8f\	-tor	8ff\	-tor,	.	.
.	.	16ff\	16aa\	.	.	.	.	.	.	.	.	.	.
.	5	16ff\	16aa\	8A\	vi-	8c\	vi-	8f\	vi-	8ee-\	vi-	.	.
.	.	16ff\JJ	16aa\JJ	.	.	.	.	.	.	.	.	.	.
=99	=99	=99	=99	=99	=99	=99	=99	=99	=99	=99	=99	=99	=99
4B-\	.	16dd\LL	16ff\LL	8B-\	-de-	8d\	-de-	4f\	-de-	8dd\	-de-	1ryy	1ryy
.	.	16dd\	16ff\	.	.	.	.	.	.	.	.	.	.
.	.	16dd\	16ff\	8B-,<\	-bit	8d\	-bit	.	.	8b-,<\	-bit,	.	.
.	.	16dd\JJ	16ff\JJ	.	.	.	.	.	.	.	.	.	.
4F\	.	16ff\LL	16aa\LL	4F\	et	4A/	et	8f\	-bit	4cc\	et	.	.
.	.	16ff\	16aa\	.	.	.	.	.	.	.	.	.	.
.	.	16ff\	16aa\	.	.	.	.	8f\	et	.	.	.	.
.	.	16ff\JJ	16aa\JJ	.	.	.	.	.	.	.	.	.	.
!	!	!LO:LB:g=original	!	!	!	!	!	!	!	!	!	!	!
4G\	7	16ff\LL	16gg\LL	4G\	i-	8B-\	i-	8f\	i-	8b-\	i-	.	.
.	.	16ff\	16gg\	.	.	.	.	.	.	.	.	.	.
.	.	16ff\	16gg\	.	.	8B-\	-ra	8f\	-ra-	8b-\	-ra-	.	.
.	.	16ff\JJ	16gg\JJ	.	.	.	.	.	.	.	.	.	.
8c\L	n_	16een\LL	16gg\LL	(8c\L	-ra	4c\	sce-	4en\	-ſce-	4g/	-sce-	.	.
.	.	16ee\	16gg\	.	.	.	.	.	.	.	.	.	.
8B-\J	.	16ee\	16gg\	8B-\J)	.	.	.	.	.	.	.	.	.
.	X	16ee\JJ	16gg\JJ	.	.	.	.	.	.	.	.	.	.
!	!	!	!	!	!	!	!	!	!	!LO:LB:g=original	!	!	!
=100	=100	=100	=100	=100	=100	=100	=100	=100	=100	=100	=100	=100	=100
8A\L	6	16ff\LL	16aa\LL	8A\	sce-	4c\	-tur	4f,<\	-tur	4a\	-tur	1ryy	1ryy
.	.	16ff\	16aa\	.	.	.	.	.	.	.	.	.	.
8F\J	.	16ff\	16aa\	8F,<\	-tur	.	.	.	.	.	.	.	.
.	.	16ff\JJ	16aa\JJ	.	.	.	.	.	.	.	.	.	.
4D/	6	16ff\LL	16bb-\LL	(4D/	den-	(4B-\	den-	(4f\	den-	2b-\	den-	.	.
.	.	16ff\	16bb-\	.	.	.	.	.	.	.	.	.	.
.	.	16ff\	16bb-\	.	.	.	.	.	.	.	.	.	.
.	.	16ff\JJ	16bb-\JJ	.	.	.	.	.	.	.	.	.	.
4E-\	6 5	16gg\LL	16bb-\LL	4E-\)	.	4c\)	.	4g\)	.	.	.	.	.
.	.	16gg\	16bb-\	.	.	.	.	.	.	.	.	.	.
.	.	16gg\	16bb-\	.	.	.	.	.	.	.	.	.	.
.	.	16gg\JJ	16bb-\JJ	.	.	.	.	.	.	.	.	.	.
!	!	!	!	!LO:LB:g=original	!	!LO:LB:g=original	!	!	!	!	!	!	!
4F\	.	16ff\LL	16aa\LL	8F\	-ti-	8f\	-ti-	8f\	-ti-	8a\	-ti-	.	.
.	.	16ff\	16aa\	.	.	.	.	.	.	.	.	.	.
.	.	16ff\	16aa\	8F\	-bus	8e-\	-bus	8f\	-bus	8a\	-bus,	.	.
.	.	16ff\JJ	16aa\JJ	.	.	.	.	.	.	.	.	.	.
!	!	!	!LO:LB:g=original	!	!	!	!	!	!	!	!	!	!
=101	=101	=101	=101	=101	=101	=101	=101	=101	=101	=101	=101	=101	=101
4BB-/	.	16ff\LL	16bb-\LL	8BB-/	ſu-	8d\	ſu-	8f\	ſu-	8b-\	su-	1ryy	1ryy
.	.	16ff\	16bb-\	.	.	.	.	.	.	.	.	.	.
.	.	16ff\	16bb-\	8BB-,</	-is	8B-\	-is	8f,<\	-is	8b-\	-is	.	.
.	.	16ff\JJ	16bb-\JJ	.	.	.	.	.	.	.	.	.	.
4AA/	6	16ff\LL	16ff\LL	8AA/	fre-	8c\	fre-	8f\	fre-	8ff\	fre-	.	.
.	.	16ff\	16ff\	.	.	.	.	.	.	.	.	.	.
.	.	16ff\	16ff\	8A\	-met	8c\	-met	8f,<\	-met	8ff\	-met,	.	.
.	.	16ff\JJ	16ff\JJ	.	.	.	.	.	.	.	.	.	.
!LO:LB:g=original	!	!	!	!	!	!	!	!	!	!	!	!	!
4GG/	7	16ff\LL	16gg\LL	4G\	et	4d\	et	4g\	et	8ff\	et	.	.
.	.	16ff\	16gg\	.	.	.	.	.	.	.	.	.	.
.	.	16ff\	16gg\	.	.	.	.	.	.	8ff\	ta-	.	.
.	.	16ff\JJ	16gg\JJ	.	.	.	.	.	.	.	.	.	.
4G\	6\	16een\LL	16ccc\LL	4G\	ta-	4G/	ta-	(8cc\L	ta-	4een\	-bes-	.	.
.	.	16ee\	16ccc\	.	.	.	.	.	.	.	.	.	.
.	.	16ee\	16bb-\	.	.	.	.	8b-\J)	.	.	.	.	.
.	.	16ee\JJ	16bb-\JJ	.	.	.	.	.	.	.	.	.	.
=102	=102	=102	=102	=102	=102	=102	=102	=102	=102	=102	=102	=102	=102
4F\	.	16ff\LL	16aa\LL	8F\	-be-	8c\	-be-	8a\	-be-	4ff,<\	-cet,	1ryy	1ryy
.	.	16ff\	16aa\	.	.	.	.	.	.	.	.	.	.
!	!	!	!	!	!	!	!	!LO:PB:g=original	!	!	!	!	!
.	.	16ff\	16aa\	8F,<\	-scet	8c\	-scet	8a\	-scet	.	.	.	.
.	.	16ff\JJ	16aa\JJ	.	.	.	.	.	.	.	.	.	.
!	!	!LO:LB:g=original	!	!	!	!	!	!	!	!	!	!	!
2G\	-	16dd\LL	16bb-\LL	8G\	de-	8G/	de-	8b-\	de-	8dd\	de-	.	.
.	.	16dd\	16bb-\	.	.	.	.	.	.	.	.	.	.
.	.	16dd\	16bb-\	8G\	-si-	8G/	-si-	8b-\	-si-	8b-\	-si-	.	.
.	.	16dd\JJ	16bb-\JJ	.	.	.	.	.	.	.	.	.	.
.	4 2	16cc\LL	16aa\LL	8G\	-de-	8A/	-de-	8a\	-de-	8ee-X\	-de-	.	.
.	.	16cc\	16aa\	.	.	.	.	.	.	.	.	.	.
.	.	16cc\	16aa\	16G\	-ri-	16A/	-ri-	16a\	-ri-	16ee-\	-ri-	.	.
.	.	16cc\JJ	16aa\JJ	16G\	-um	16A/	-um	16a\	-um	16ee-\	-um,	.	.
4F#X\	6	16dd\LL	16aa\LL	8F#X\	pec-	8d\	pec-	8a\	pec-	8dd\	pec-	.	.
.	.	16dd\	16aa\	.	.	.	.	.	.	.	.	.	.
.	5	16dd\	16aa\	8F#\	-ca-	8c\	-ca-	8a\	-ca-	8dd\	-ca-	.	.
.	.	16dd\JJ	16aa\JJ	.	.	.	.	.	.	.	.	.	.
=103	=103	=103	=103	=103	=103	=103	=103	=103	=103	=103	=103	=103	=103
4G\	-	16dd\LL	16gg\LL	4G\	-to-	8B-\	-to-	4g\	-to-	8dd\	-to-	1ryy	1ryy
.	.	16dd\	16gg\	.	.	.	.	.	.	.	.	.	.
.	.	16dd\	16gg\	.	.	8G/	-ru(m)	.	.	8dd,<\	-rum,	.	.
.	.	16dd\JJ	16gg\JJ	.	.	.	.	.	.	.	.	.	.
4D/	n	16dd\LL	16ff#X\LL	8D,</	-rum	4A/	pe-	8f#X,<\	-rum	4dd\	pe-	.	.
.	.	16dd\	16ff#\	.	.	.	.	.	.	.	.	.	.
.	.	16dd\	16ff#\	8D/	pe-	.	.	8f#\	pe-	.	.	.	.
.	.	16dd\JJ	16ff#\JJ	.	.	.	.	.	.	.	.	.	.
4En\	7	16dd\LL	16gg\LL	4En\	-ri-	4G/	-ri-	4g\	-ri-	4dd\	-ri-	.	.
.	.	16dd\	16gg\	.	.	.	.	.	.	.	.	.	.
.	.	16dd\	16gg\	.	.	.	.	.	.	.	.	.	.
.	.	16dd\JJ	16gg\JJ	.	.	.	.	.	.	.	.	.	.
!	!	!	!	!	!	!	!	!	!	!LO:LB:g=original	!	!	!
8A\L	#_	16cc#X\LL	16een\LL	8A\	-bit	8A,</	-bit	8en\	-bit	8cc#X\	-bit,	.	.
.	.	16cc#\	16ee\	.	.	.	.	.	.	.	.	.	.
8G\J	.	16cc#\	16ee\	8G\	pe-	8A/	pe-	8e\	pe-	8cc#\	pe-	.	.
.	X	16cc#\JJ	16ee\JJ	.	.	.	.	.	.	.	.	.	.
!	!	!	!LO:LB:g=original	!LO:LB:g=original	!	!LO:PB:g=original	!	!	!	!	!	!	!
=104	=104	=104	=104	=104	=104	=104	=104	=104	=104	=104	=104	=104	=104
8F#X\L	.	16dd\LL	16ff#X\LL	8F\	-ri-	8A/	-ri-	8f#X\	-ri-	8dd\	-ri-	1ryy	1ryy
.	.	16dd\	16ff#\	.	.	.	.	.	.	.	.	.	.
8D\J	.	16dd\	16ff#\	8D,</	-bit	8A,</	-bit	8f#,<\	-bit	8dd\	-bit,	.	.
.	.	16dd\JJ	16ff#\JJ	.	.	.	.	.	.	.	.	.	.
4BB-/	6	16g/LL	16gg\LL	8BB-/	Glor-	8B-\	Glo-	8g\	Glo-	8g/	Glo-	.	.
.	.	16g/	16gg\	.	.	.	.	.	.	.	.	.	.
.	.	16g/	16gg\	16BB-/	-ri-	16B-\	-ri-	16g\	-ri-	16g/	-ri-	.	.
.	.	16g/JJ	16gg\JJ	16BB-/	-a	16B-\	-a	16g\	-a	16g/	-a,	.	.
4C/	.	16a/LL	16gg\LL	4C/	Pa-	4c\	Pa-	4g\	Pa-	4a\	Pa-	.	.
.	.	16a/	16gg\	.	.	.	.	.	.	.	.	.	.
.	.	16a/	16gg\	.	.	.	.	.	.	.	.	.	.
.	.	16a/JJ	16gg\JJ	.	.	.	.	.	.	.	.	.	.
4D/	#	16dd\LL	16ff#X\LL	8D/	-tri	8A/	-tri	8f#X\	-tri	8dd\	-tri	.	.
.	.	16dd\	16ff#\	.	.	.	.	.	.	.	.	.	.
.	.	16cc\	16ff#\	8D/	et	8A/	et	8f#\	et	8cc\	et	.	.
.	.	16cc\JJ	16ff#\JJ	.	.	.	.	.	.	.	.	.	.
!	!	!LO:LB:g=original	!	!	!	!	!	!	!	!	!	!	!
=105	=105	=105	=105	=105	=105	=105	=105	=105	=105	=105	=105	=105	=105
4GG/	-	16b-/LL	16gg\LL	8GG/	Fi-	8B-\	Fi-	8d\	Fi-	8b-\	Fi-	1ryy	1ryy
.	.	16b-/	16dd\	.	.	.	.	.	.	.	.	.	.
!	!	!	!	!	!	!	!	!LO:LB:g=original	!	!	!	!	!
.	.	16b-/	16dd\	16GG/	-li-	16B-\	-li-	16d\	-li-	16a\	-li-	.	.
.	.	16b-/JJ	16dd\JJ	16GG/	-o	16B-\	-o	16d\	-o	16g/	-o,	.	.
2D/	4 2	16a/LL	16dd\LL	8D/	et	8d\	et	8d\	et	8a\	et	.	.
.	.	16a/	16dd\	.	.	.	.	.	.	.	.	.	.
.	.	16a/	16dd\	8D/	ſpi-	8d\	ſpi-	8d\	ſpi-	8a\	Spi-	.	.
.	.	16a/JJ	16dd\JJ	.	.	.	.	.	.	.	.	.	.
.	.	16b-/LL	16een\LL	4D/	-ri-	4B-\	-ri-	4en\	-ri-	4een\	-ri-	.	.
.	.	16b-/	16ee\	.	.	.	.	.	.	.	.	.	.
.	.	16b-/	16ee\	.	.	.	.	.	.	.	.	.	.
.	.	16b-/JJ	16ee\JJ	.	.	.	.	.	.	.	.	.	.
4C#X/	6	16een\LL	16aa\LL	8C#X/	-tu-	8c#X\	-tu-	8a\	-tu-	8ee\	-tu-	.	.
.	.	16ee\	16aa\	.	.	.	.	.	.	.	.	.	.
.	5	16ee\	16gg\	8C#/	-i	8c#\	-i	8g\	-i	8ee\	-i	.	.
.	.	16ee\JJ	16gg\JJ	.	.	.	.	.	.	.	.	.	.
=106	=106	=106	=106	=106	=106	=106	=106	=106	=106	=106	=106	=106	=106
4D/	n	16a/LL	16ffn\LL	8D/	ſan-	8A/	ſan-	8f\	ſan-	8ff\	San-	1ryy	1ryy
.	.	16a/	16ff\	.	.	.	.	.	.	.	.	.	.
.	.	16a/	16ff\	8D,</	-cto	8A,</	-cto	8d,<\	-cto	8ff,<\	-cto,	.	.
.	.	16a/JJ	16ff\JJ	.	.	.	.	.	.	.	.	.	.
4BB-/	.	16ff\LL	16bb-\LL	8BB-/	ſi-	8d\	ſi-	8d\	ſi-	8b-\	Si-	.	.
.	.	16ff\	16bb-\	.	.	.	.	.	.	.	.	.	.
.	.	16ff\	16bb-\	8BB-/	-cut	8d\	-cut	8d\	-cut	8b-,<\	-cut	.	.
.	.	16ff\JJ	16bb-\JJ	.	.	.	.	.	.	.	.	.	.
!	!	!	!	!	!	!	!	!	!	!LO:LB:g=original	!	!	!
4C/	7	16ee-X\LL	16bb-\LL	8C/	e-	8c\	e-	8e-\	e-	8b-\	e-	.	.
.	.	16ee-\	16bb-\	.	.	.	.	.	.	.	.	.	.
.	.	16ee-\	16bb-\	8C/	-rat	8c\	-rat	8e-\	-rat	8b-\	-rat,	.	.
.	.	16ee-\JJ	16bb-\JJ	.	.	.	.	.	.	.	.	.	.
8F\L	.	16ff\LL	16aa\LL	8F\	in	8c\	in	8f\	in	8a\	in	.	.
.	.	16ff\	16aa\	.	.	.	.	.	.	.	.	.	.
!	!	!	!	!	!	!LO:LB:g=original	!	!	!	!	!	!	!
8E-\J	4 2	16ff\	16aa\	8E-\	prin-	8c\	prin-	8f\	prin-	8a\	prin-	.	.
.	.	16ff\JJ	16aa\JJ	.	.	.	.	.	.	.	.	.	.
!	!	!	!LO:PB:g=original	!LO:LB:g=original	!	!	!	!	!	!	!	!	!
=107	=107	=107	=107	=107	=107	=107	=107	=107	=107	=107	=107	=107	=107
8D/L	6	16ff\LL	16bb-\LL	8D/	-ci-	8.d\	-ci-	8.f\	-ci-	8.b-\	-ci-	1ryy	1ryy
.	.	16dd\	16ff\	.	.	.	.	.	.	.	.	.	.
8BB-/J	.	16dd\	16ff\	16C/	-pi-	.	.	.	.	.	.	.	.
.	.	16dd\JJ	16ff\JJ	16BB-/	-o	16d\	-pi-	16f\	-pi-	16b-\	-pi-	.	.
4AA/	6	16f/LL	16aa\LL	4AA/	et	8c\	-o	8f\	-o	8cc\	-o	.	.
.	.	16f/	16aa\	.	.	.	.	.	.	.	.	.	.
.	.	16f/	16aa\	.	.	8f\	et	8f\	et	8cc\	et	.	.
.	.	16f/JJ	16aa\JJ	.	.	.	.	.	.	.	.	.	.
4BB-/	6 5	16g/LL	16gg\LL	4BB-/	nunc	4f\	nunc	4g\	nunc	4dd\	nunc	.	.
.	.	16g/	16gg\	.	.	.	.	.	.	.	.	.	.
.	.	16g/	16gg\	.	.	.	.	.	.	.	.	.	.
.	.	16g/JJ	16gg\JJ	.	.	.	.	.	.	.	.	.	.
!	!	!LO:LB:g=original	!	!	!	!	!	!	!	!	!	!	!
4C/	n	16cc\LL	16gg\LL	4C/	et	4en\	et	(8cc\L	et	4cc\	et	.	.
.	.	16cc\	16gg\	.	.	.	.	.	.	.	.	.	.
.	.	16b-\	16gg\	.	.	.	.	8b-\J)	.	.	.	.	.
.	.	16b-\JJ	16gg\JJ	.	.	.	.	.	.	.	.	.	.
=108	=108	=108	=108	=108	=108	=108	=108	=108	=108	=108	=108	=108	=108
4FF/	.	16a/LL	16ff\LL	8F\	ſem-	8f\	ſem-	8a\	ſem-	8cc\	Sem-	1ryy	1ryy
.	.	16a/	16ff\	.	.	.	.	.	.	.	.	.	.
.	.	16a/	16ff\	8F,<\	-per	8c\	-per	8f\	-per	8cc,<\	-per,	.	.
.	.	16a/JJ	16ff\JJ	.	.	.	.	.	.	.	.	.	.
!	!	!	!	!	!	!	!	!LO:LB:g=original	!	!	!	!	!
2BB-/	.	16dd\LL	16ff\LL	8B-\	et	8B-\	et	8f\	et	8dd\	et	.	.
.	.	16dd\	16ff\	.	.	.	.	.	.	.	.	.	.
.	.	16dd\	16ff\	8B-\	in	8B-\	in	8f\	in	8dd\	in	.	.
.	.	16dd\JJ	16ff\JJ	.	.	.	.	.	.	.	.	.	.
.	4 2	16ee-\LL	16gg\LL	8B-\	ſae-	8c\	ſae-	8g\	ſae-	8ee-\	ſae-	.	.
.	.	16ee-\	16gg\	.	.	.	.	.	.	.	.	.	.
.	.	16ee-\	16gg\	16B-\	-cu-	16c\	-cu-	16g\	-cu-	16ee-\	-cu-	.	.
.	.	16ee-\JJ	16gg\JJ	16B-\	-la	16c\	-la	16g\	-la	16ee-\	-la	.	.
4AA/	6	16cc\LL	16ff\LL	8A\	ſae-	8f\	ſae-	8f\	ſae-	8cc\	ſae-	.	.
.	.	16cc\	16ff\	.	.	.	.	.	.	.	.	.	.
.	5	16cc\	16ff\	8A\	-cu-	8e-\	-cu-	8f\	-cu-	8cc\	-cu-	.	.
.	.	16cc\JJ	16ff\JJ	.	.	.	.	.	.	.	.	.	.
=109	=109	=109	=109	=109	=109	=109	=109	=109	=109	=109	=109	=109	=109
!LO:TX:a:t=P:problem=mixed beam	!	!	!	!	!	!	!	!	!	!	!	!	!
8BB-/L	.	16dd\LL	16ff\LL	8B-\	-lo-	8d\	-lo-	8f\	-lo-	8b-\	-lo-	1ryy	1ryy
.	.	16dd\	16ff\	.	.	.	.	.	.	.	.	.	.
8E-\J	.	16ee-\	16gg\	8E-\	-rum	8c\	-rum	8g\	-rum	(16cc\LL	-rum	.	.
.	.	16ee-\JJ	16gg\JJ	.	.	.	.	.	.	16b-\JJ)	.	.	.
!LO:TX:a:t=P:problem=mixed beam	!	!	!	!LO:TX:a:t=P:problem=mixed beam	!	!	!	!	!	!	!	!	!
8F\L	.	16cc\LL	16ff\LL	(8F\L	A-	4c\	a-	4f\	a-	(8b-\L	a-	.	.
.	.	16cc\	16ff\	.	.	.	.	.	.	.	.	.	.
8FF/J	.	16cc\	16ff\	8FF/J)	.	.	.	.	.	8a\J)	.	.	.
.	.	16cc\JJ	16ff\JJ	.	.	.	.	.	.	.	.	.	.
!LO:TX:a:t=P:problem=mixed beam	!	!	!	!	!	!	!	!	!	!LO:LB:g=original	!	!	!
8BB-/L	.	16dd\LL	16ff\LL	8BB-,</	-men	8B-,<\	-men	8f,<\	-men	8b-,<\	-men	.	.
.	.	16ff\	16bb-\	.	.	.	.	.	.	.	.	.	.
!	!	!	!	!	!	!LO:LB:g=original	!	!	!	!	!	!	!
8B-\	.	16ff\	16bb-\	8B-\L	A-	(8d\L	A-	4f\	A-	4b-\	a-	.	.
.	.	16ff\JJ	16bb-\JJ	.	.	.	.	.	.	.	.	.	.
8A\	.	16ff\LL	16bb-\LL	8A\	.	8c\J)	.	.	.	.	.	.	.
.	.	16ff\	16bb-\	.	.	.	.	.	.	.	.	.	.
8G\J	.	16gg\	16bb-\	8G\J	.	8B-\	-men	8g\	-men	8b-\	-men	.	.
.	.	16gg\JJ	16bb-\JJ	.	.	.	.	.	.	.	.	.	.
*	*	*	*custos	*	*	*	*	*	*	*	*	*	*
!LO:LB:g=original	!	!	!LO:LB:g=original	!	!	!	!	!	!	!	!	!	!
=110	=110	=110	=110	=110	=110	=110	=110	=110	=110	=110	=110	=110	=110
*	*	*	*	*	*	*	*	*	*ij	*	*	*	*
8F\L	.	16aa\LL	16aa\LL	8F\	.	8c\	A-	8a\	A-	8a\	a-	1ryy	1ryy
.	.	16aa\	16aa\	.	.	.	.	.	.	.	.	.	.
8G\	.	16gg\	16bb-\	8G,<\	-men	8B-\	-men	8g\	-men	8b-\	-men	.	.
*	*	*	*	*	*	*	*	*	*Xij	*	*	*	*
.	.	16gg\JJ	16bb-\JJ	.	.	.	.	.	.	.	.	.	.
8E-\	.	16gg\LL	16bb-\LL	(8E-\L	A-	4c\	A-	(8g\L	A-	(8b-\L	a-	.	.
.	.	16gg\	16bb-\	.	.	.	.	.	.	.	.	.	.
8F\J	.	16ff\	16aa\	8F\J)	.	.	.	8f\J)	.	8a\J)	.	.	.
!	!	!LO:TX:a:t=e	!	!	!	!	!	!	!	!	!	!	!
.	.	16ee-\JJ	16aa\JJ	.	.	.	.	.	.	.	.	.	.
4BB-/	.	4dd\	4bb-;\	4BB-/	-men	4d\	-men	4f\	-men	4b-;\	-men	.	.
4r	.	4r	4r	4r	.	4r	.	4r	.	4r	.	.	.
==	==	==	==	==	==	==	==	==	==	==	==	==	==
*-	*-	*-	*-	*-	*-	*-	*-	*-	*-	*-	*-	*-	*-
!!!system-decoration: [g1][g2][g3]s9
!!!RDF**kern: < = below
!!!ENC: Marta Lawrence
!!!END: 2020-11-25
!!!ENC: Berenika Jozajtis
!!!END: 2020-05-18
